backend/src/Notifo/wwwroot/integrations/email.svg

<svg xmlns='http://www.w3.org/2000/svg' xml:space='preserve' width='86.205' height='56.127'><path d='M86.126 55.085c.047-.145.079-.298.079-.459V1.499c0-.162-.032-.316-.08-.462-.007-.02-.011-.04-.019-.06a1.492 1.492 0 0 0-.276-.46c-.008-.009-.009-.02-.017-.029-.005-.005-.011-.007-.016-.012a1.504 1.504 0 0 0-.442-.323c-.013-.006-.023-.014-.036-.02a1.48 1.48 0 0 0-.511-.123c-.018-.001-.035-.005-.053-.005C84.738.004 84.723 0 84.706 0H1.501c-.017 0-.033.004-.05.005L1.403.01a1.497 1.497 0 0 0-.518.125C.875.139.867.146.857.15.687.231.536.341.409.477.404.482.398.483.393.488.385.496.384.507.376.516a1.5 1.5 0 0 0-.277.461c-.008.02-.012.04-.019.061-.048.146-.08.3-.08.462v53.128c0 .164.033.32.082.468l.018.059a1.5 1.5 0 0 0 .28.462c.007.008.009.018.016.026.006.007.014.011.021.018.049.051.103.096.159.14.025.019.047.042.073.06.066.046.137.083.21.117.018.008.034.021.052.028.181.077.38.121.589.121h83.204c.209 0 .408-.043.589-.121.028-.012.054-.03.081-.044.062-.031.124-.063.181-.102.03-.021.057-.048.086-.071.051-.041.101-.082.145-.129l.025-.022c.008-.009.01-.021.018-.03a1.5 1.5 0 0 0 .275-.458c.01-.022.015-.043.022-.065zM3.001 4.901l25.247 23.061L3.001 51.207Zm51.746 21.931c-.104.068-.214.125-.301.221-.033.036-.044.083-.073.121l-11.27 10.294L5.367 2.999h75.472zm-24.275 3.161 11.619 10.613a1.496 1.496 0 0 0 2.023 0l11.475-10.481 25.243 23.002H5.345Zm27.342-1.9L83.205 4.901v46.33z'/></svg>

<?xml version="1.0" encoding="UTF-8" standalone="no"?>
<!-- Generator: Adobe Illustrator 21.1.0, SVG Export Plug-In . SVG Version: 6.00 Build 0)  -->

<svg
   xmlns:dc="http://purl.org/dc/elements/1.1/"
   xmlns:cc="http://creativecommons.org/ns#"
   xmlns:rdf="http://www.w3.org/1999/02/22-rdf-syntax-ns#"
   xmlns:svg="http://www.w3.org/2000/svg"
   xmlns="http://www.w3.org/2000/svg"
   xmlns:sodipodi="http://sodipodi.sourceforge.net/DTD/sodipodi-0.dtd"
   xmlns:inkscape="http://www.inkscape.org/namespaces/inkscape"
   version="1.1"
   id="Layer_1"
   x="0px"
   y="0px"
   viewBox="0 0 86.205005 56.127"
   xml:space="preserve"
   sodipodi:docname="email.svg"
   width="86.205002"
   height="56.126999"
   inkscape:version="0.92.4 (5da689c313, 2019-01-14)"><metadata
   id="metadata9"><rdf:RDF><cc:Work
       rdf:about=""><dc:format>image/svg+xml</dc:format><dc:type
         rdf:resource="http://purl.org/dc/dcmitype/StillImage" /><dc:title></dc:title></cc:Work></rdf:RDF></metadata><defs
   id="defs7" /><sodipodi:namedview
   pagecolor="#ffffff"
   bordercolor="#666666"
   borderopacity="1"
   objecttolerance="10"
   gridtolerance="10"
   guidetolerance="10"
   inkscape:pageopacity="0"
   inkscape:pageshadow="2"
   inkscape:window-width="2560"
   inkscape:window-height="1017"
   id="namedview5"
   showgrid="false"
   fit-margin-top="0"
   fit-margin-left="0"
   fit-margin-right="0"
   fit-margin-bottom="0"
   inkscape:zoom="2.351722"
   inkscape:cx="43.212998"
   inkscape:cy="27.090001"
   inkscape:window-x="1912"
   inkscape:window-y="-8"
   inkscape:window-maximized="1"
   inkscape:current-layer="Layer_1" />
<path
   d="m 86.126,55.085 c 0.047,-0.145 0.079,-0.298 0.079,-0.459 V 1.499 c 0,-0.162 -0.032,-0.316 -0.08,-0.462 C 86.118,1.017 86.114,0.997 86.106,0.977 86.042,0.806 85.948,0.652 85.83,0.517 85.822,0.508 85.821,0.497 85.813,0.488 85.808,0.483 85.802,0.481 85.797,0.476 85.671,0.342 85.522,0.234 85.355,0.153 85.342,0.147 85.332,0.139 85.319,0.133 85.161,0.062 84.989,0.022 84.808,0.01 84.79,0.009 84.773,0.005 84.755,0.005 84.738,0.004 84.723,0 84.706,0 H 1.501 C 1.484,0 1.468,0.004 1.451,0.005 1.435,0.006 1.419,0.009 1.403,0.01 1.22,0.022 1.045,0.063 0.885,0.135 0.875,0.139 0.867,0.146 0.857,0.15 0.687,0.231 0.536,0.341 0.409,0.477 0.404,0.482 0.398,0.483 0.393,0.488 0.385,0.496 0.384,0.507 0.376,0.516 0.258,0.651 0.163,0.806 0.099,0.977 0.091,0.997 0.087,1.017 0.08,1.038 0.032,1.184 0,1.338 0,1.5 v 53.128 c 0,0.164 0.033,0.32 0.082,0.468 0.007,0.02 0.011,0.039 0.018,0.059 0.065,0.172 0.161,0.327 0.28,0.462 0.007,0.008 0.009,0.018 0.016,0.026 0.006,0.007 0.014,0.011 0.021,0.018 0.049,0.051 0.103,0.096 0.159,0.14 0.025,0.019 0.047,0.042 0.073,0.06 0.066,0.046 0.137,0.083 0.21,0.117 0.018,0.008 0.034,0.021 0.052,0.028 0.181,0.077 0.38,0.121 0.589,0.121 h 83.204 c 0.209,0 0.408,-0.043 0.589,-0.121 0.028,-0.012 0.054,-0.03 0.081,-0.044 0.062,-0.031 0.124,-0.063 0.181,-0.102 0.03,-0.021 0.057,-0.048 0.086,-0.071 0.051,-0.041 0.101,-0.082 0.145,-0.129 0.008,-0.008 0.017,-0.014 0.025,-0.022 0.008,-0.009 0.01,-0.021 0.018,-0.03 0.117,-0.134 0.211,-0.288 0.275,-0.458 0.01,-0.022 0.015,-0.043 0.022,-0.065 z M 3.001,4.901 28.248,27.962 3.001,51.207 Z m 51.746,21.931 c -0.104,0.068 -0.214,0.125 -0.301,0.221 -0.033,0.036 -0.044,0.083 -0.073,0.121 L 43.103,37.468 5.367,2.999 h 75.472 z m -24.275,3.161 11.619,10.613 c 0.287,0.262 0.649,0.393 1.012,0.393 0.363,0 0.725,-0.131 1.011,-0.393 L 55.589,30.125 80.832,53.127 H 5.345 Z m 27.342,-1.9 25.391,-23.192 v 46.33 z"
   id="path2"
   inkscape:connector-curvature="0" />
</svg>
